!!!!SEGMENT: pl-kk--kk-i-315--010_palestrina-giovanni-pierluigi-da--vulnerasti-cor-meum.krn
!!!cenid: 16xx:1106
!!!COM: Palestrina, Giovanni Pierluigi da
!!!COM-rismid: pe1904
!!!CDT: ~1525-1594/02/02
!!!CNT: Italian
!!!OTL: Vulnerasti cor meum
!!!PDT:
!!!AGN: Sacred
!!!SMS-siglum: PL-Kk
!!!SMS-shelfmark: Kk.I.315
!!!SMS-shelfwork: 010 W
!!!SMS-variant:
!!!SMS-altvar:
!!!NIFC-rismid: 1001146827
!!!URL-scan: http://repozytorium.nifc.pl/skany/pl-kk-nut--i-315
!!!ONB-nifc: UWAGA: motety w zbiorze: 1. Osculetur me, 2. Trahe me post curremus, 3. Nigra sum sed formosa, 4. Vineam meam, 5. Si ignoras te o pulchra, 6. Pulchrae sunt genae tuae, 7. Fasciculus myrrhae, 8. Ecce tu pulcher es, 9. Tota pulchra es amica mea, 10. Vulnerasti cor meum, 11. Sicut lilium inter spinas, 12. Introduxit me rex, 13. Laeva ejus, 14. Vox dilecti mei
!!!AIN: 1 alto
!!!key:
**kern	**text
*Ialto	*
*I"[Alto]	*
*I'[A]	*
*clefC2	*
*k[b-]	*
*d:	*
*M2/1	*
*met(C|)	*
=1-	=1-
!LO:TX:t=P:problem=inicjał V przed kluczem	!
!LO:TX:t=P:problem=w źródle znaki przykluczowe b- B-	!
0r	.
=2-	=2-
1.a	Vul-
!LO:TX:t=P:problem=2\middle or right&colon; global	!
2a\	-ne-
=3-	=3-
1cc	-ra-
2g\	-sti
2a\	cor
=4-	=4-
1b-	me-
0a	-um
=5-	=5-
.	.
2rd	.
1f\	vul-
=6-	=6-
.	.
2f\	-ne-
2.g\	-ra-
*custos:e	*
!LO:TX:t=P:problem=4\middle or left&colon; global	!
4f\	.
!LO:LB:g=original	!
=7-	=7-
4e-X/	.
4d/	.
2c/	.
2B-/	-sti
2G/	cor
=8-	=8-
2A/	me-
2A/	-u(m)
2rd	.
1a\	so-
=9-	=9-
.	.
2g\	-ror
2e/ny	me-
2f,<\	-a
=10-	=10-
2g\	Spon-
4f\	.
4e\	.
2f\	.
!LO:TX:t=P:problem=kreska pseudotaktowa	!
2e/	-sa
!LO:PB:g=original	!
=11-	=11-
!LO:TX:a:t=3	!
0r	.
=12-	=12-
1r	.
2r	.
1a\	vul-
=13-	=13-
.	.
2a\	-ne-
1cc	-ra-
=14-	=14-
2g\	-sti
2a\	cor
0b-	me-
=15-	=15-
.	.
1a,<	-um
=16-	=16-
1a	cor
2.a\	me-
4g\	.
=17-	=17-
1f	.
2d,</	-um
!LO:LB:g=original	!
1a\	vul-
=18-	=18-
.	.
2a\	ne-
1cc	-ra-
=19-	=19-
2g\	-sti
2a\	cor
2b-\	.
4a\	me-
4g\	.
=20-	=20-
2f\	.
2g\	.
0a	-um
=21-	=21-
.	.
2rd	.
2a\	in
=22-	=22-
2a\	u-
2g,<\	-no
2a\	o-
!LO:LB:g=original	!
2b-\	-co-
=23-	=23-
1cc	-lo-
2a,<\	-ru(m)
2g\	tu-
=24-	=24-
1a	-o-
2b-,<\	-rum
1g\	et
=25-	=25-
.	.
2f\	in
2g\	u-
2a,<\	-no
=26-	=26-
2b-\	cri-
2g\	-ne
4a\	col-
4b-\	.
4cc\	.
4a\	.
!LO:LB:g=original	!
=27-	=27-
2b-\	.
1cc	.
2b-,<\	-li
=28-	=28-
2.a\	tu-
4g\	.
2f\	.
2g\	.
=29-	=29-
1f	-i
0rd	.
=30-	=30-
.	.
1ryy	.
=31-	=31-
*M3/2	*
!LO:TA:a:t=P:problem=w źródle przed metrum 3/2 oznaczenie metryczne "C|"	!
1d	Quam
1d/	pul-
=32-	=32-
.	.
1d	-chre
=33-	=33-
0g,<	sunt
!LO:LB:g=original	!
=34-	=34-
.	.
1.d	mam-
=35-	=35-
.	.
2e/	.
2f\	.
=36-	=36-
2g\	.
1a	.
=37-	=37-
!LO:SIC:l:v:s=-mae	!
0b-	-me
=38-	=38-
.	.
1g	tu-
=39-	=39-
!LO:SIC:l:v:s=-ae	!
0a	-e
=40-	=40-
.	.
1rb	.
=41-	=41-
1f	qua(m)
1a\	pul-
=42-	=42-
.	.
1a	-chre
=43-	=43-
1a	sunt
1.cc\	ma(m)-
=44-	=44-
.	.
!LO:SIC:l:v:s=-mae	!
2b-\	-me
!LO:LB:g=original	!
=45-	=45-
1.a	tu-
=46-	=46-
4g\	.
4f\	.
1g	.
=47-	=47-
!LO:SIC:l:v:s=-ae	!
0a	-e
=48-	=48-
.	.
1rb	.
=49-	=49-
0a	so-
=50-	=50-
.	.
1a	-ror
=51-	=51-
1a	me-
1a\	-a
=52-	=52-
.	.
1rb	.
=53-	=53-
0cc	spon-
=54-	=54-
.	.
1ryy	.
=55-	=55-
*M2/1	*
*met(C|)	*
1cc	-sa
2r	.
1a\	pul-
=56-	=56-
.	.
2g\	-chri-
!LO:LB:g=original	!
2f\	-o-
2a\	-ra
=57-	=57-
1g	sunt
2.cc\	u-
4cc\	-be-
=58-	=58-
2a,<\	-ra
2b-\	tu-
2f\	-a
2.g\	vi-
=59-	=59-
.	.
!LO:N:vis=16	!
8f\L	.
!LO:N:vis=16	!
8e\J	.
2f\	.
1g	-no
=60-	=60-
00r	.
=61-	=61-
.	.
=62-	=62-
2rd	.
2a\	et
!LO:LB:g=original	!
!LO:N:acc=#	!
1bn	o-
=63-	=63-
2cc,<\	-dor
1cc	un-
2cc\	-gven-
=64-	=64-
1a	-to-
1.b-y	-ru(m)
=65-	=65-
.	.
2b-\	tu-
1b-	-o-
=66-	=66-
1b-,<	-rum
2f\	su-
2f\	-per
=67-	=67-
2.g\	o-
4g\	-mni-
2c,</	-a
!LO:LB:g=original	!
1cc\	su-
=68-	=68-
.	.
2b-,<\	-per
2.a\	o-
4g\	-mni-
=69-	=69-
2f,<\	-a
2e/	a-
2a\	-ro-
!LO:SIC:l:v:s=-ma-	!
2g\	-mo-
=70-	=70-
1a,<	-ta
2rd	.
2a\	et
=71-	=71-
!LO:N:acc=#	!
1bn	o-
2cc,<\	-dor
!LO:PB:g=original	!
1cc\	un-
=72-	=72-
.	.
2cc\	-gven-
1a	-to-
=73-	=73-
1.b-y	-rum
2b-\	tu-
=74-	=74-
1b-	-o-
2a,<\	-rum
1cc\	su-
=75-	=75-
.	.
2cc\	-per
2b-\	o-
2a\	-mni-
=76-	=76-
2g,<\	-a
!LO:LB:g=original	!
2a\	a-
2f\	-ro-
2g\	-ma-
=77-	=77-
1a,<	-ta
2.a\	su-
4a,<\	-per
=78-	=78-
2b-\	o-
2f\	-mni-
4g\	-a
4g\	a-
2.a\	-ro-
=79-	=79-
.	.
4g\	.
1g	.
2f#X\	-ma-
=80-	=80-
00g	-ta
==	==
*-	*-
!!!system-decoration: [(s1)]
!!!RDF**kern: l = terminal long
!!!RDF**kern: > = above
!!!RDF**kern: < = below
!!!EED: Antoni Szymański
!!!EEV: 2021-03-28
!!!ENC: Andrzej Gręziak
!!!END: 2021-03-22
